static/logos/avo-glyph-color.svg

<svg width="76" height="26" viewBox="0 0 76 26" fill="none" xmlns="http://www.w3.org/2000/svg">
<g clip-path="url(#clip0_1_3447)">
<path fill-rule="evenodd" clip-rule="evenodd" d="M2.71312 12.9878C2.71312 7.30001 7.41169 2.67264 13.1862 2.67264C18.9615 2.67264 23.6597 7.30001 23.6597 12.9878C23.6597 18.6757 18.9615 23.3034 13.1862 23.3034C7.41169 23.3034 2.71312 18.6757 2.71312 12.9878ZM0 12.9877C0 20.1493 5.91538 25.9755 13.1862 25.9755C20.4578 25.9755 26.3732 20.1493 26.3732 12.9877C26.3732 5.82618 20.4578 0 13.1862 0C5.91538 0 0 5.82618 0 12.9877ZM50.9192 0.016403H48.0236L39.5879 21.7558L31.1338 0.016403H28.2195L38.3206 25.9746H39.5879H40.8551L50.9192 0.016403ZM62.8135 2.6951C57.0389 2.6951 52.3403 7.32283 52.3403 13.0103C52.3403 18.6982 57.0389 23.3259 62.8135 23.3259C68.5883 23.3259 73.2866 18.6982 73.2866 13.0103C73.2866 7.32283 68.5883 2.6951 62.8135 2.6951ZM62.8135 25.9985C55.5426 25.9985 49.6269 20.1719 49.6269 13.0104C49.6269 5.84914 55.5426 0.0225911 62.8135 0.0225911C70.0846 0.0225911 76 5.84914 76 13.0104C76 20.1719 70.0846 25.9985 62.8135 25.9985Z" fill="black"/>
<path fill-rule="evenodd" clip-rule="evenodd" d="M22.8828 26H26.9529V0H22.8828V26Z" fill="#EC008C"/>
</g>
<defs>
<clipPath id="clip0_1_3447">
<rect width="76" height="26" fill="white"/>
</clipPath>
</defs>
</svg>

<svg xmlns="http://www.w3.org/2000/svg" width="187.077" height="64" fill="none" viewBox="0 0 76 26"><g fill-rule="evenodd" clip-path="url(#a)" clip-rule="evenodd"><path fill="#000" d="M2.713 12.988c0-5.688 4.699-10.315 10.473-10.315 5.776 0 10.474 4.627 10.474 10.315s-4.698 10.315-10.474 10.315c-5.774 0-10.473-4.627-10.473-10.315Zm-2.713 0c0 7.161 5.915 12.988 13.186 12.988 7.272 0 13.187-5.827 13.187-12.988C26.373 5.826 20.458 0 13.186 0 5.916 0 0 5.826 0 12.988ZM50.92.016h-2.896l-8.436 21.74L31.134.016h-2.915l10.102 25.959h2.534L50.92.016Zm11.893 2.68c-5.774 0-10.473 4.627-10.473 10.314 0 5.688 4.699 10.316 10.473 10.316 5.775 0 10.474-4.628 10.474-10.316 0-5.687-4.699-10.315-10.474-10.315Zm0 23.302c-7.27 0-13.186-5.826-13.186-12.988 0-7.16 5.916-12.987 13.186-12.987C70.085.023 76 5.849 76 13.01 76 20.172 70.085 26 62.813 26Z"/><path fill="#EC008C" d="M22.883 26h4.07V0h-4.07v26Z"/></g><defs><clipPath id="a"><path fill="#fff" d="M0 0h76v26H0z"/></clipPath></defs></svg>
